images/16758356.svg

<?xml version="1.0" encoding="UTF-8"?>
<svg xmlns="http://www.w3.org/2000/svg" xmlns:xlink="http://www.w3.org/1999/xlink" width="300pt" height="300pt" viewBox="0 0 300 300" version="1.1">
<defs>
<g>
<symbol overflow="visible" id="glyph0-0">
<path style="stroke:none;" d="M 0.640625 2.296875 L 0.640625 -9.171875 L 7.140625 -9.171875 L 7.140625 2.296875 Z M 1.375 1.578125 L 6.421875 1.578125 L 6.421875 -8.4375 L 1.375 -8.4375 Z M 1.375 1.578125 "/>
</symbol>
<symbol overflow="visible" id="glyph0-1">
<path style="stroke:none;" d="M 5.125 -8.609375 C 4.1875 -8.609375 3.441406 -8.257812 2.890625 -7.5625 C 2.347656 -6.875 2.078125 -5.929688 2.078125 -4.734375 C 2.078125 -3.535156 2.347656 -2.585938 2.890625 -1.890625 C 3.441406 -1.203125 4.1875 -0.859375 5.125 -0.859375 C 6.050781 -0.859375 6.785156 -1.203125 7.328125 -1.890625 C 7.878906 -2.585938 8.15625 -3.535156 8.15625 -4.734375 C 8.15625 -5.929688 7.878906 -6.875 7.328125 -7.5625 C 6.785156 -8.257812 6.050781 -8.609375 5.125 -8.609375 Z M 5.125 -9.65625 C 6.445312 -9.65625 7.503906 -9.207031 8.296875 -8.3125 C 9.097656 -7.414062 9.5 -6.222656 9.5 -4.734375 C 9.5 -3.234375 9.097656 -2.035156 8.296875 -1.140625 C 7.503906 -0.253906 6.445312 0.1875 5.125 0.1875 C 3.789062 0.1875 2.722656 -0.253906 1.921875 -1.140625 C 1.128906 -2.035156 0.734375 -3.234375 0.734375 -4.734375 C 0.734375 -6.222656 1.128906 -7.414062 1.921875 -8.3125 C 2.722656 -9.207031 3.789062 -9.65625 5.125 -9.65625 Z M 5.125 -9.65625 "/>
</symbol>
<symbol overflow="visible" id="glyph0-2">
<path style="stroke:none;" d="M 1.28125 -9.484375 L 3 -9.484375 L 7.203125 -1.546875 L 7.203125 -9.484375 L 8.453125 -9.484375 L 8.453125 0 L 6.71875 0 L 2.515625 -7.921875 L 2.515625 0 L 1.28125 0 Z M 1.28125 -9.484375 "/>
</symbol>
<symbol overflow="visible" id="glyph0-3">
<path style="stroke:none;" d="M 1.28125 -9.484375 L 2.5625 -9.484375 L 2.5625 -5.59375 L 7.21875 -5.59375 L 7.21875 -9.484375 L 8.5 -9.484375 L 8.5 0 L 7.21875 0 L 7.21875 -4.515625 L 2.5625 -4.515625 L 2.5625 0 L 1.28125 0 Z M 1.28125 -9.484375 "/>
</symbol>
</g>
</defs>
<g id="surface33865">
<rect x="0" y="0" width="300" height="300" style="fill:rgb(100%,100%,100%);fill-opacity:1;stroke:none;"/>
<path style=" stroke:none;fill-rule:nonzero;fill:rgb(0%,0%,0%);fill-opacity:1;" d="M 66.230469 136.730469 L 37.472656 118.671875 L 33.027344 129.605469 Z M 66.230469 136.730469 "/>
<path style="fill:none;stroke-width:1.2;stroke-linecap:butt;stroke-linejoin:miter;stroke:rgb(0%,0%,0%);stroke-opacity:1;stroke-miterlimit:10;" d="M 66.230469 136.730469 L 70.816406 169.855469 "/>
<path style="fill:none;stroke-width:1.2;stroke-linecap:butt;stroke-linejoin:miter;stroke:rgb(0%,0%,0%);stroke-opacity:1;stroke-miterlimit:10;" d="M 66.230469 136.730469 L 92.625 116.195312 "/>
<path style="fill:none;stroke-width:1.2;stroke-linecap:butt;stroke-linejoin:miter;stroke:rgb(0%,0%,0%);stroke-opacity:1;stroke-miterlimit:10;" d="M 70.816406 169.855469 L 101.796875 182.449219 "/>
<path style="fill:none;stroke-width:1.2;stroke-linecap:butt;stroke-linejoin:miter;stroke:rgb(0%,0%,0%);stroke-opacity:1;stroke-miterlimit:10;" d="M 70.953125 178.40625 L 95.734375 188.476562 "/>
<path style="fill:none;stroke-width:1.2;stroke-linecap:butt;stroke-linejoin:miter;stroke:rgb(0%,0%,0%);stroke-opacity:1;stroke-miterlimit:10;" d="M 101.796875 182.449219 L 128.191406 161.914062 "/>
<path style="fill:none;stroke-width:1.2;stroke-linecap:butt;stroke-linejoin:miter;stroke:rgb(0%,0%,0%);stroke-opacity:1;stroke-miterlimit:10;" d="M 128.191406 161.914062 L 159.171875 174.503906 "/>
<path style="fill:none;stroke-width:1.2;stroke-linecap:butt;stroke-linejoin:miter;stroke:rgb(0%,0%,0%);stroke-opacity:1;stroke-miterlimit:10;" d="M 155.273438 175.042969 L 157.566406 191.609375 "/>
<path style="fill:none;stroke-width:1.2;stroke-linecap:butt;stroke-linejoin:miter;stroke:rgb(100%,0%,0%);stroke-opacity:1;stroke-miterlimit:10;" d="M 157.566406 191.609375 L 159.859375 208.171875 "/>
<path style="fill:none;stroke-width:1.2;stroke-linecap:butt;stroke-linejoin:miter;stroke:rgb(0%,0%,0%);stroke-opacity:1;stroke-miterlimit:10;" d="M 163.070312 173.964844 L 165.359375 190.527344 "/>
<path style="fill:none;stroke-width:1.2;stroke-linecap:butt;stroke-linejoin:miter;stroke:rgb(100%,0%,0%);stroke-opacity:1;stroke-miterlimit:10;" d="M 165.359375 190.527344 L 167.652344 207.089844 "/>
<path style="fill:none;stroke-width:1.2;stroke-linecap:butt;stroke-linejoin:miter;stroke:rgb(0%,0%,0%);stroke-opacity:1;stroke-miterlimit:10;" d="M 159.171875 174.503906 L 172.367188 164.238281 "/>
<path style="fill:none;stroke-width:1.2;stroke-linecap:butt;stroke-linejoin:miter;stroke:rgb(0%,0%,100%);stroke-opacity:1;stroke-miterlimit:10;" d="M 172.367188 164.238281 L 185.566406 153.972656 "/>
<path style=" stroke:none;fill-rule:nonzero;fill:rgb(100%,100%,100%);fill-opacity:1;" d="M 158.757812 199.628906 L 169.757812 199.628906 L 169.757812 215.628906 L 158.757812 215.628906 Z M 158.757812 199.628906 "/>
<g style="fill:rgb(100%,0%,0%);fill-opacity:1;">
  <use xlink:href="#glyph0-1" x="158.757812" y="212.004883"/>
</g>
<path style=" stroke:none;fill-rule:nonzero;fill:rgb(0%,0%,0%);fill-opacity:1;" d="M 216.546875 166.5625 L 187.789062 148.503906 L 183.34375 159.4375 Z M 216.546875 166.5625 "/>
<path style=" stroke:none;fill-rule:nonzero;fill:rgb(100%,100%,100%);fill-opacity:1;" d="M 175.566406 145.972656 L 195.566406 145.972656 L 195.566406 161.972656 L 175.566406 161.972656 Z M 175.566406 145.972656 "/>
<g style="fill:rgb(0%,0%,100%);fill-opacity:1;">
  <use xlink:href="#glyph0-2" x="175.566406" y="158.348633"/>
  <use xlink:href="#glyph0-3" x="185.536133" y="158.348633"/>
</g>
<path style="fill:none;stroke-width:1.2;stroke-linecap:butt;stroke-linejoin:miter;stroke:rgb(0%,0%,0%);stroke-opacity:1;stroke-miterlimit:10;" d="M 216.546875 166.5625 L 242.941406 146.027344 "/>
<path style="fill:none;stroke-width:1.2;stroke-linecap:butt;stroke-linejoin:miter;stroke:rgb(0%,0%,0%);stroke-opacity:1;stroke-miterlimit:10;" d="M 216.546875 166.5625 L 221.132812 199.6875 "/>
<path style="fill:none;stroke-width:1.2;stroke-linecap:butt;stroke-linejoin:miter;stroke:rgb(0%,0%,0%);stroke-opacity:1;stroke-miterlimit:10;" d="M 242.941406 146.027344 L 238.355469 112.902344 "/>
<path style="fill:none;stroke-width:1.2;stroke-linecap:butt;stroke-linejoin:miter;stroke:rgb(0%,0%,0%);stroke-opacity:1;stroke-miterlimit:10;" d="M 238.355469 112.902344 L 207.375 100.3125 "/>
<path style="fill:none;stroke-width:1.2;stroke-linecap:butt;stroke-linejoin:miter;stroke:rgb(0%,0%,0%);stroke-opacity:1;stroke-miterlimit:10;" d="M 238.21875 104.355469 L 213.4375 94.28125 "/>
<path style="fill:none;stroke-width:1.2;stroke-linecap:butt;stroke-linejoin:miter;stroke:rgb(0%,0%,0%);stroke-opacity:1;stroke-miterlimit:10;" d="M 264.75 92.371094 L 238.355469 112.902344 "/>
<path style="fill:none;stroke-width:1.2;stroke-linecap:butt;stroke-linejoin:miter;stroke:rgb(0%,0%,0%);stroke-opacity:1;stroke-miterlimit:10;" d="M 207.375 100.3125 L 202.789062 67.1875 "/>
<path style="fill:none;stroke-width:1.2;stroke-linecap:butt;stroke-linejoin:miter;stroke:rgb(0%,0%,0%);stroke-opacity:1;stroke-miterlimit:10;" d="M 202.789062 67.1875 L 229.183594 46.652344 "/>
<path style="fill:none;stroke-width:1.2;stroke-linecap:butt;stroke-linejoin:miter;stroke:rgb(0%,0%,0%);stroke-opacity:1;stroke-miterlimit:10;" d="M 210.261719 71.34375 L 231.375 54.917969 "/>
<path style="fill:none;stroke-width:1.2;stroke-linecap:butt;stroke-linejoin:miter;stroke:rgb(0%,0%,0%);stroke-opacity:1;stroke-miterlimit:10;" d="M 229.183594 46.652344 L 260.164062 59.242188 "/>
<path style="fill:none;stroke-width:1.2;stroke-linecap:butt;stroke-linejoin:miter;stroke:rgb(0%,0%,0%);stroke-opacity:1;stroke-miterlimit:10;" d="M 260.164062 59.242188 L 264.75 92.371094 "/>
<path style="fill:none;stroke-width:1.2;stroke-linecap:butt;stroke-linejoin:miter;stroke:rgb(0%,0%,0%);stroke-opacity:1;stroke-miterlimit:10;" d="M 252.828125 63.636719 L 256.496094 90.136719 "/>
<path style="fill:none;stroke-width:1.2;stroke-linecap:butt;stroke-linejoin:miter;stroke:rgb(0%,0%,0%);stroke-opacity:1;stroke-miterlimit:10;" d="M 219.652344 203.332031 L 235.140625 209.628906 "/>
<path style="fill:none;stroke-width:1.2;stroke-linecap:butt;stroke-linejoin:miter;stroke:rgb(100%,0%,0%);stroke-opacity:1;stroke-miterlimit:10;" d="M 235.140625 209.628906 L 250.632812 215.925781 "/>
<path style="fill:none;stroke-width:1.2;stroke-linecap:butt;stroke-linejoin:miter;stroke:rgb(0%,0%,0%);stroke-opacity:1;stroke-miterlimit:10;" d="M 222.613281 196.042969 L 238.105469 202.339844 "/>
<path style="fill:none;stroke-width:1.2;stroke-linecap:butt;stroke-linejoin:miter;stroke:rgb(100%,0%,0%);stroke-opacity:1;stroke-miterlimit:10;" d="M 238.105469 202.339844 L 253.59375 208.636719 "/>
<path style="fill:none;stroke-width:1.2;stroke-linecap:butt;stroke-linejoin:miter;stroke:rgb(0%,0%,0%);stroke-opacity:1;stroke-miterlimit:10;" d="M 221.132812 199.6875 L 207.933594 209.957031 "/>
<path style="fill:none;stroke-width:1.2;stroke-linecap:butt;stroke-linejoin:miter;stroke:rgb(100%,0%,0%);stroke-opacity:1;stroke-miterlimit:10;" d="M 207.933594 209.957031 L 194.738281 220.222656 "/>
<path style=" stroke:none;fill-rule:nonzero;fill:rgb(100%,100%,100%);fill-opacity:1;" d="M 247.113281 204.28125 L 258.113281 204.28125 L 258.113281 220.28125 L 247.113281 220.28125 Z M 247.113281 204.28125 "/>
<g style="fill:rgb(100%,0%,0%);fill-opacity:1;">
  <use xlink:href="#glyph0-1" x="247.113281" y="216.657227"/>
</g>
<path style="fill:none;stroke-width:1.2;stroke-linecap:butt;stroke-linejoin:miter;stroke:rgb(100%,0%,0%);stroke-opacity:1;stroke-miterlimit:10;" d="M 194.738281 220.222656 L 197.03125 236.785156 "/>
<path style="fill:none;stroke-width:1.2;stroke-linecap:butt;stroke-linejoin:miter;stroke:rgb(0%,0%,0%);stroke-opacity:1;stroke-miterlimit:10;" d="M 197.03125 236.785156 L 199.324219 253.347656 "/>
<path style=" stroke:none;fill-rule:nonzero;fill:rgb(100%,100%,100%);fill-opacity:1;" d="M 189.738281 212.222656 L 200.738281 212.222656 L 200.738281 228.222656 L 189.738281 228.222656 Z M 189.738281 212.222656 "/>
<g style="fill:rgb(100%,0%,0%);fill-opacity:1;">
  <use xlink:href="#glyph0-1" x="189.738281" y="224.598633"/>
</g>
<path style=" stroke:none;fill-rule:nonzero;fill:rgb(0%,0%,0%);fill-opacity:1;" d="M 92.625 116.195312 L 93.886719 82.261719 L 82.195312 83.878906 Z M 92.625 116.195312 "/>
<path style="fill:none;stroke-width:1.2;stroke-linecap:butt;stroke-linejoin:miter;stroke:rgb(0%,0%,0%);stroke-opacity:1;stroke-miterlimit:10;" d="M 92.625 116.195312 L 108.113281 122.492188 "/>
<path style="fill:none;stroke-width:1.2;stroke-linecap:butt;stroke-linejoin:miter;stroke:rgb(100%,0%,0%);stroke-opacity:1;stroke-miterlimit:10;" d="M 108.113281 122.492188 L 123.605469 128.789062 "/>
<path style="fill:none;stroke-width:1.2;stroke-linecap:butt;stroke-linejoin:miter;stroke:rgb(0%,0%,0%);stroke-opacity:1;stroke-miterlimit:10;" d="M 88.039062 83.070312 L 101.238281 72.804688 "/>
<path style="fill:none;stroke-width:1.2;stroke-linecap:butt;stroke-linejoin:miter;stroke:rgb(100%,0%,0%);stroke-opacity:1;stroke-miterlimit:10;" d="M 101.238281 72.804688 L 114.433594 62.539062 "/>
<path style=" stroke:none;fill-rule:nonzero;fill:rgb(100%,100%,100%);fill-opacity:1;" d="M 104.433594 54.539062 L 125.433594 54.539062 L 125.433594 70.539062 L 104.433594 70.539062 Z M 104.433594 54.539062 "/>
<g style="fill:rgb(100%,0%,0%);fill-opacity:1;">
  <use xlink:href="#glyph0-1" x="104.433594" y="66.915039"/>
  <use xlink:href="#glyph0-3" x="114.923828" y="66.915039"/>
</g>
<path style="fill:none;stroke-width:1.2;stroke-linecap:butt;stroke-linejoin:miter;stroke:rgb(100%,0%,0%);stroke-opacity:1;stroke-miterlimit:10;" d="M 123.605469 128.789062 L 136.800781 118.519531 "/>
<path style="fill:none;stroke-width:1.2;stroke-linecap:butt;stroke-linejoin:miter;stroke:rgb(0%,0%,0%);stroke-opacity:1;stroke-miterlimit:10;" d="M 136.800781 118.519531 L 150 108.253906 "/>
<path style=" stroke:none;fill-rule:nonzero;fill:rgb(100%,100%,100%);fill-opacity:1;" d="M 118.605469 120.789062 L 129.605469 120.789062 L 129.605469 136.789062 L 118.605469 136.789062 Z M 118.605469 120.789062 "/>
<g style="fill:rgb(100%,0%,0%);fill-opacity:1;">
  <use xlink:href="#glyph0-1" x="118.605469" y="133.165039"/>
</g>
</g>
</svg>

<svg xmlns="http://www.w3.org/2000/svg" xmlns:xlink="http://www.w3.org/1999/xlink" width="300pt" height="300pt" viewBox="0 0 300 300"><defs><symbol overflow="visible"><path d="M.64 2.297v-11.47h6.5v11.47zm.735-.72h5.047V-8.436H1.375zm0 0"/></symbol><symbol overflow="visible" id="a"><path d="M5.125-8.61c-.938 0-1.684.352-2.234 1.047-.542.688-.812 1.633-.812 2.83 0 1.198.27 2.147.813 2.842.55.687 1.297 1.03 2.235 1.03.926 0 1.66-.343 2.203-1.03.55-.696.828-1.645.828-2.844 0-1.196-.277-2.14-.828-2.829-.543-.695-1.277-1.046-2.203-1.046zm0-1.046c1.32 0 2.38.45 3.172 1.344.8.898 1.203 2.09 1.203 3.578 0 1.5-.402 2.7-1.203 3.593C7.504-.255 6.445.186 5.125.186c-1.336 0-2.402-.44-3.203-1.328C1.13-2.036.734-3.235.734-4.735c0-1.49.395-2.68 1.188-3.579.8-.894 1.867-1.343 3.203-1.343zm0 0"/></symbol><symbol overflow="visible" id="b"><path d="M1.28-9.484H3l4.203 7.937v-7.937h1.25V0H6.72L2.515-7.922V0H1.28zm0 0"/></symbol><symbol overflow="visible" id="c"><path d="M1.28-9.484h1.282v3.89H7.22v-3.89H8.5V0H7.22v-4.516H2.562V0H1.28zm0 0"/></symbol></defs><g><path fill="#fff" d="M0 0h300v300H0z"/><path d="M66.23 136.73l-28.757-18.058-4.446 10.933zm0 0"/><path d="M66.23 136.73l4.586 33.125M66.23 136.73l26.395-20.535M70.816 169.855l30.98 12.594M70.953 178.406l24.78 10.07M101.797 182.45l26.394-20.536M128.19 161.914l30.982 12.59M155.273 175.043l2.293 16.566" stroke-width="1.2" stroke="#000" stroke-miterlimit="10" fill="none"/><path d="M157.566 191.61l2.293 16.562" stroke-width="1.2" stroke="#f00" stroke-miterlimit="10" fill="none"/><path d="M163.07 173.965l2.29 16.562" stroke-width="1.2" stroke="#000" stroke-miterlimit="10" fill="none"/><path d="M165.36 190.527l2.292 16.563" stroke-width="1.2" stroke="#f00" stroke-miterlimit="10" fill="none"/><path d="M159.172 174.504l13.195-10.266" stroke-width="1.2" stroke="#000" stroke-miterlimit="10" fill="none"/><path d="M172.367 164.238l13.2-10.265" stroke-width="1.2" stroke="#00f" stroke-miterlimit="10" fill="none"/><path d="M158.758 199.63h11v16h-11zm0 0" fill="#fff"/><use xlink:href="#a" x="158.758" y="212.005" fill="#f00"/><path d="M216.547 166.563l-28.758-18.06-4.446 10.935zm0 0"/><path d="M175.566 145.973h20v16h-20zm0 0" fill="#fff"/><g fill="#00f"><use xlink:href="#b" x="175.566" y="158.349"/><use xlink:href="#c" x="185.536" y="158.349"/></g><path d="M216.547 166.563l26.394-20.536M216.547 166.563l4.586 33.125M242.94 146.027l-4.585-33.125M238.355 112.902l-30.98-12.59M238.22 104.355L213.437 94.28M264.75 92.37l-26.395 20.532M207.375 100.313l-4.586-33.126M202.79 67.188l26.394-20.536M210.262 71.344l21.113-16.426M229.184 46.652l30.98 12.59M260.164 59.242l4.586 33.13M252.828 63.637l3.668 26.5M219.652 203.332l15.49 6.297" stroke-width="1.2" stroke="#000" stroke-miterlimit="10" fill="none"/><path d="M235.14 209.63l15.493 6.296" stroke-width="1.2" stroke="#f00" stroke-miterlimit="10" fill="none"/><path d="M222.613 196.043l15.492 6.297" stroke-width="1.2" stroke="#000" stroke-miterlimit="10" fill="none"/><path d="M238.105 202.34l15.49 6.297" stroke-width="1.2" stroke="#f00" stroke-miterlimit="10" fill="none"/><path d="M221.133 199.688l-13.2 10.27" stroke-width="1.2" stroke="#000" stroke-miterlimit="10" fill="none"/><path d="M207.934 209.957l-13.196 10.266" stroke-width="1.2" stroke="#f00" stroke-miterlimit="10" fill="none"/><path d="M247.113 204.28h11v16h-11zm0 0" fill="#fff"/><use xlink:href="#a" x="247.113" y="216.657" fill="#f00"/><path d="M194.738 220.223l2.293 16.562" stroke-width="1.2" stroke="#f00" stroke-miterlimit="10" fill="none"/><path d="M197.03 236.785l2.294 16.563" stroke-width="1.2" stroke="#000" stroke-miterlimit="10" fill="none"/><path d="M189.738 212.223h11v16h-11zm0 0" fill="#fff"/><use xlink:href="#a" x="189.738" y="224.599" fill="#f00"/><path d="M92.625 116.195l1.262-33.933-11.692 1.617zm0 0"/><path d="M92.625 116.195l15.488 6.297" stroke-width="1.2" stroke="#000" stroke-miterlimit="10" fill="none"/><path d="M108.113 122.492l15.492 6.297" stroke-width="1.2" stroke="#f00" stroke-miterlimit="10" fill="none"/><path d="M88.04 83.07l13.198-10.265" stroke-width="1.2" stroke="#000" stroke-miterlimit="10" fill="none"/><path d="M101.238 72.805l13.196-10.266" stroke-width="1.2" stroke="#f00" stroke-miterlimit="10" fill="none"/><path d="M104.434 54.54h21v16h-21zm0 0" fill="#fff"/><g fill="#f00"><use xlink:href="#a" x="104.434" y="66.915"/><use xlink:href="#c" x="114.924" y="66.915"/></g><path d="M123.605 128.79l13.196-10.27" stroke-width="1.2" stroke="#f00" stroke-miterlimit="10" fill="none"/><path d="M136.8 118.52l13.2-10.266" stroke-width="1.2" stroke="#000" stroke-miterlimit="10" fill="none"/><path d="M118.605 120.79h11v16h-11zm0 0" fill="#fff"/><use xlink:href="#a" x="118.605" y="133.165" fill="#f00"/></g></svg>
